X:1
T:Aus tiefer Not (mel. 1, 2vv, LXXVII)
T:Michael Praetorius
T:Aus tiefer Not (mel. 1, 2vv, LXXVII)
C:Michael Praetorius
%%score [ 1 2 ]
L:1/8
Q:1/4=160
M:4/2
K:C
V:1 treble-8 nm="Tenor" snm="T"
V:2 bass nm="Bass" snm="B"
V:1
 B8 E4 B4 | c4 B4 G4 A4 | B8 z4 B4- | B4 c8 d4 | c4 A8 G4- | G4 F4 E4 A4- | A4 G8 F4 | E8 z4 G4 | %8
w: Aus tie- fer|Not schrei ich zu|dir, Herr|_ Gott, er-|hör mein Ru-|* * fen. mein|_ Ru- *|fen. Dein|
 A4 B4 c4 A4 | G4 A4 B8 | z4 B4 c4 d4 | c8 A8 | G4 F4 E8 | z4 A4 G4 c4 | B4 G4 d8- | d4 c4 B4 B4 | %16
w: gnä- dig Oh- ren|kehr zu mir,|und mei- ner|Bitt sie|öf- * fen.|Denn so du|willst das se-|* * * hen|
 A8 z4 c4 | B4 c4 d8 | A4 z2 c2 B2 c2 d4 | G8 z2 c2 B4 | c4 d4 G8 | B4 c4 A8 | G6 G2 c4 B4 | %23
w: an, was|Sünd und Un-|recht, was Sünd und Un-|recht, was Sünd|und Un- recht|ist _ ge-|tan, wer kann, Herr,|
 A8 E4 G4- | G4 F4 E8 | z2 B2 d8 c4 | B4 B4 z2 A2 e4- | e4 d4 c4 B4 | d12 c4 | B6 G2 c6 B2 | %30
w: vor dir blei-|* * ben?|wer kann, Herr,|vor dir wer kann,|_ Herr, vor dir|blei- *|ben? wer kann, Herr,|
 A12 E4 | G12 F4 | E8 z4 A4 | c12 B4 | A4 D4 d6 c2 | B4 A4 B4 B2 G2 | c2 B4 A2 G2 c2 B2 A2- | %37
w: vor dir|blei- *|ben? wer|kann, Herr,|vor dir blei- *|* * * ben? wer|kann, Herr, vor dir blei- * *|
 A2 ^G^F G4 G8 |] %38
w: * * * * ben?|
V:2
 z8 E,8 | A,,4 E,8 F,4 | E,8 C,4 D,4 | E,12 B,,4 | C,4 D,4 C,8 | A,,8 G,,4 F,,4 | %6
w: Aus|tie- fer Not|schrei ich zu|dir, Herr|Gott, er- hör|mein Ru- *|
 C,6 D,2 E,2 C,2 D,4 | A,,4 z2 E,2 A,,4 E,4 | F,4 E,4 C,4 D,4 | E,12 E,4 | F,4 G,4 F,4 D,4 | %11
w: |fen. Dein gnä- dig|Oh- ren kehr zu|mir, und|mei- ner Bitt sie|
 A,,2 B,,2 C,2 A,,2 D,4 A,,4 | z4 A,4 G,8 | F,8 E,8- | E,4 E,4 D,4 F,4 | E,6 C,2 G,8- | %16
w: öf- * * * * fen.|sie öf-|* fen.|_ Denn so du|willst das se-|
 G,4 F,4 E,2 D,2 C,2 D,2 | E,2 E,2 A,,4 z2 D,2 B,,2 C,2 | D,4 A,,4 z2 C,2 B,,4 | %19
w: |* hen an, was Sünd und|Un- recht, was Sünd|
 C,4 E,4 A,,2 A,2 G,2 E,2 | A,4 D,2 F,2 E,2 F,2 G,4- | G,4 C,4 D,6 C,2 | B,,4 C,4 A,,4 G,,4 | %23
w: und Un- recht, was Sünd und|Un- recht, was Sünd und Un-|* recht ist _|_ _ ge- tan,|
 z4 A,,4 C,4 B,,4 | A,,8 A,,4 z2 E,2 | G,4 F,4 E,8 | D,6 E,2 A,4 G,4 | F,8 E,4 G,4- | %28
w: wer kann, Herr,|vor dir wer|kann, Herr, vor|dir wer kann, Herr,|vor dir blei-|
 G,4 F,4 E,8- | E,8 z2 C,2 F,4- | F,2 E,2 D,4 A,,4 C,4- | C,4 B,,4 A,,8- | A,,4 C,4 F,8- | %33
w: * * ben?|_ wer kann,|_ Herr, vor dir blei-|* * ben?|_ wer kann,|
 F,4 E,4 D,8- | D,8 G,,4 G,4- | G,4 F,4 E,8 | E,16- | E,16 |] %38
w: _ Herr, vor|_ dir blei-||ben?|_|

